X:69
T:Crib of Perches
M:4/4
L:1/8
K:D
~A3 B AGFD|(3EFG) AB =~c3A| (3GAG) E=c G=c EG|=cAGA AG(3EFG)|
~A3B AGFD |(3EFG) AB =c2 =cA |dff/2f/2f ecdB|AFGE FD D2:|
dff/2f/2f aff/2f/2f |bfaf gfed |cdef gec'e | gecA GAc z|
dff/2f/2f aff/2f/2f| d2 fd edcA| (3Bcd) ec decB | AFGE D4 :|
